packages/assets/static/images/icons/quote.svg

<svg width="24" height="24" viewBox="0 0 24 24" xmlns="http://www.w3.org/2000/svg">
<path d="M17.3534 20C16.0331 20 14.9604 19.5208 14.1352 18.5625C13.3512 17.5625 12.9593 16.2083 12.9593 14.5C12.9593 12.5417 13.5575 10.6458 14.7541 8.8125C15.9506 6.97917 17.8485 5.375 20.4479 4L21.5 5.5C19.272 6.83333 17.766 8.1875 16.9821 9.5625C16.2394 10.8958 15.8681 12.3542 15.8681 13.9375L14.4446 16.5625C14.4446 15.5625 14.7541 14.75 15.373 14.125C16.0331 13.4583 16.8377 13.125 17.7866 13.125C18.7356 13.125 19.5195 13.4375 20.1384 14.0625C20.7986 14.6875 21.1287 15.5 21.1287 16.5C21.1287 17.5 20.778 18.3333 20.0765 19C19.3751 19.6667 18.4674 20 17.3534 20ZM6.89414 20C5.57383 20 4.50109 19.5208 3.6759 18.5625C2.89197 17.5625 2.5 16.2083 2.5 14.5C2.5 12.5417 3.09826 10.6458 4.29479 8.8125C5.49131 6.97917 7.38925 5.375 9.9886 4L11.0407 5.5C8.8127 6.83333 7.30673 8.1875 6.5228 9.5625C5.78013 10.8958 5.40879 12.3542 5.40879 13.9375L3.98534 16.5625C3.98534 15.5625 4.29479 14.75 4.91368 14.125C5.57383 13.4583 6.37839 13.125 7.32736 13.125C8.27633 13.125 9.06026 13.4375 9.67915 14.0625C10.3393 14.6875 10.6694 15.5 10.6694 16.5C10.6694 17.5 10.3187 18.3333 9.61726 19C8.91585 19.6667 8.00814 20 6.89414 20Z"/>
</svg>

<svg viewBox="0 0 24 24" xmlns="http://www.w3.org/2000/svg" aria-hidden="true" fill="currentColor"><path d="M17.353 20q-1.98 0-3.218-1.437-1.176-1.5-1.176-4.063 0-2.937 1.795-5.687T20.448 4L21.5 5.5q-3.342 2-4.518 4.063-1.114 2-1.114 4.374l-1.423 2.626q0-1.5.928-2.438.99-1 2.414-1t2.351.938q.99.936.99 2.437T20.077 19q-1.051 1-2.723 1m-10.46 0q-1.98 0-3.218-1.437Q2.5 17.063 2.5 14.5q0-2.937 1.795-5.687T9.989 4l1.052 1.5q-3.342 2-4.518 4.063-1.114 2-1.114 4.374l-1.424 2.626q0-1.5.929-2.438.99-1 2.413-1 1.424 0 2.352.938.99.936.99 2.437T9.617 19q-1.052 1-2.723 1"/></svg>
